src/images/nodejs.svg

<?xml version="1.0" encoding="UTF-8"?>
<svg width="100px" height="28px" viewBox="0 0 100 28" version="1.1" xmlns="http://www.w3.org/2000/svg" xmlns:xlink="http://www.w3.org/1999/xlink">
    <!-- Generator: Sketch 51.3 (57544) - http://www.bohemiancoding.com/sketch -->
    <title>nodejs</title>
    <desc>Created with Sketch.</desc>
    <defs></defs>
    <g id="Welcome" stroke="none" stroke-width="1" fill="none" fill-rule="evenodd">
        <g id="Desktop-HD" transform="translate(-672.000000, -1080.000000)" fill-rule="nonzero">
            <g id="Group-3" transform="translate(0.000000, 587.000000)">
                <g id="nodejs" transform="translate(672.000000, 493.000000)">
                    <g id="Group" transform="translate(84.000000, 9.000000)" fill="#353128">
                        <path d="M11.6363636,8.74 C11.5636364,8.208 11.1272727,7.904 10.9090909,7.676 C10.6181818,7.524 10.2545455,7.448 9.81818182,7.448 C8.87272727,7.448 8,7.752 8,8.284 C8,8.664 8.21818182,8.892 8.94545455,8.968 L10.8363636,9.12 C11.6363636,9.196 12.0727273,9.424 12.5090909,9.652 C13.0909091,9.956 13.3818182,10.64 13.3818182,11.324 C13.3818182,12.16 13.0181818,12.768 12.3636364,13.148 C11.7818182,13.452 11.0545455,13.604 9.96363636,13.604 C8.65454545,13.604 7.70909091,13.3 7.12727273,12.768 C6.69090909,12.312 6.54545455,11.856 6.47272727,10.944 L7.70909091,10.944 C7.78181818,11.4 7.85454545,11.628 8.14545455,11.856 C8.50909091,12.16 9.38181818,12.312 10.0363636,12.312 C11.0545455,12.312 11.8545455,12.008 11.8545455,11.4 C11.8545455,10.944 11.3454545,10.716 10.6181818,10.64 L8.8,10.412 C7.41818182,10.26 6.61818182,9.576 6.61818182,8.436 C6.61818182,6.992 7.85454545,6.08 9.81818182,6.08 C10.8363636,6.08 11.7090909,6.308 12.2909091,6.764 C13.0181818,7.296 13.0181818,8.132 13.0181818,8.664 L11.6363636,8.664 L11.6363636,8.74 Z" id="Shape"></path>
                        <path d="M14.9090909,4.56 L8.50909091,0.684 C8.07272727,0.456 7.56363636,0.38 7.12727273,0.684 L0.727272727,4.56 C0.290909091,4.788 0,5.32 0,5.852 L0,13.604 C0,14.136 0.290909091,14.592 0.727272727,14.896 L7.12727273,18.772 C7.56363636,19 8.07272727,19.076 8.50909091,18.772 L14.9090909,14.896 C15.3454545,14.668 15.6363636,14.136 15.6363636,13.604 L15.6363636,5.852 C15.6363636,5.32 15.3454545,4.864 14.9090909,4.56 Z M14.4,13.756 L7.78181818,17.708 L4.72727273,15.808 C5.23636364,15.504 5.52727273,14.896 5.6,14.288 L5.6,6.156 L4.29090909,6.156 L4.29090909,12.388 C4.29090909,12.388 4.29090909,12.388 4.29090909,12.388 C4.29090909,12.464 4.29090909,12.54 4.29090909,12.616 L4.29090909,13.68 C4.29090909,13.68 4.29090909,13.756 4.29090909,13.832 C4.29090909,14.44 3.85454545,14.896 3.27272727,14.896 C3.12727273,14.896 2.98181818,14.896 2.90909091,14.82 C2.90909091,14.82 2.83636364,14.82 2.83636364,14.82 L1.16363636,13.832 L1.16363636,5.852 L7.78181818,1.9 L14.4,5.928 L14.4,13.756 Z" id="Shape"></path>
                    </g>
                    <g id="Group">
                        <path d="M20.9424528,22.627027 L20.9424528,15.0594595 C20.9424528,14.5297297 21.240566,14.0756757 21.6877358,13.8486486 L28.1716981,10.0648649 C28.6188679,9.83783784 29.140566,9.83783784 29.5877358,10.0648649 L35.9971698,13.8486486 C36.4443396,14.0756757 36.6679245,14.6054054 36.6679245,15.1351351 L36.6679245,22.7027027 C36.6679245,23.2324324 36.3698113,23.6864865 35.9226415,23.9135135 L29.4386792,27.6972973 C28.9915094,27.9243243 28.4698113,27.9243243 28.0226415,27.6972973 L21.6132075,23.9135135 C21.240566,23.6108108 20.9424528,23.1567568 20.9424528,22.627027 Z" id="Shape" fill="#8CC644"></path>
                        <path d="M69.3113208,19.6756757 L69.3113208,18.2378378 C69.3113208,18.1621622 69.3858491,18.0108108 69.4603774,18.0108108 L70.7273585,17.2540541 C70.8018868,17.1783784 70.9509434,17.1783784 71.0254717,17.2540541 L72.2924528,18.0108108 C72.3669811,18.0864865 72.4415094,18.1621622 72.4415094,18.2378378 L72.4415094,19.6756757 C72.4415094,19.7513514 72.3669811,19.9027027 72.2924528,19.9027027 L71.0254717,20.6594595 C70.9509434,20.7351351 70.8018868,20.7351351 70.7273585,20.6594595 L69.4603774,19.9027027 C69.3858491,19.827027 69.3113208,19.7513514 69.3113208,19.6756757 Z" id="Shape" fill="#8CC644"></path>
                        <path d="M57.0886792,2.34594595 L52.9896226,0.0756756757 C52.7660377,-0.0756756757 52.4679245,0.151351351 52.4679245,0.378378378 L52.4679245,11.0486486 C52.4679245,11.2 52.2443396,11.3513514 52.095283,11.3513514 L51.8716981,11.2756757 L50.604717,10.5189189 C50.1575472,10.2918919 49.6358491,10.2918919 49.1886792,10.5189189 L42.8537736,14.227027 C42.4066038,14.4540541 42.1830189,14.9081081 42.1830189,15.4378378 L42.1830189,22.8540541 C42.1830189,23.3837838 42.4811321,23.8378378 42.8537736,24.0648649 L49.1141509,27.772973 C49.5613208,28 50.0830189,28 50.5301887,27.772973 L56.8650943,24.0648649 C57.3122642,23.8378378 57.5358491,23.3837838 57.5358491,22.8540541 L57.5358491,17.027027 L57.5358491,3.17837838 C57.6103774,2.8 57.3867925,2.4972973 57.0886792,2.34594595 Z M52.4679245,20.5837838 L49.859434,22.0972973 L47.3254717,20.5837838 L47.3254717,17.5567568 L49.9339623,16.0432432 L52.4679245,17.5567568 L52.4679245,20.5837838 Z" id="Shape" fill="#353128"></path>
                        <path d="M0,25.6540541 L0,14.9081081 C0,14.6810811 0.149056604,14.4540541 0.372641509,14.3027027 L7.60188679,10.2162162 C7.8254717,10.1405405 8.0490566,10.1405405 8.27264151,10.2162162 L15.3528302,14.3027027 C15.5764151,14.4540541 15.7254717,14.6810811 15.7254717,14.9081081 L15.7254717,25.6540541 C15.7254717,25.8810811 15.5018868,26.0324324 15.2783019,25.9567568 L10.8811321,23.4594595 C10.6575472,23.3837838 10.5830189,23.1567568 10.5830189,22.9297297 L10.5830189,18.0108108 C10.5830189,17.7837838 10.4339623,17.5567568 10.2849057,17.4054054 L8.19811321,16.1945946 C8.0490566,16.1189189 7.8254717,16.1189189 7.60188679,16.1945946 L5.58962264,17.4054054 C5.36603774,17.5567568 5.29150943,17.7837838 5.29150943,18.0108108 L5.29150943,22.8540541 C5.29150943,23.0810811 5.14245283,23.3081081 4.99339623,23.3837838 L0.521698113,25.8054054 C0.223584906,26.0324324 0,25.8810811 0,25.6540541 Z" id="Shape" fill="#353128"></path>
                        <path d="M63.4235849,14.3027027 L70.4292453,10.2918919 C70.6528302,10.1405405 70.9509434,10.1405405 71.2490566,10.2918919 L78.3292453,14.3027027 C78.5528302,14.4540541 78.7018868,14.6810811 78.7018868,14.9837838 L78.7018868,16.9513514 C78.7018868,17.2540541 78.5528302,17.5567568 78.254717,17.6324324 L73.7830189,20.1297297 C73.559434,20.2054054 73.4103774,20.0540541 73.4103774,19.9027027 L73.4103774,17.8594595 C73.4103774,17.6324324 73.3358491,17.4810811 73.1122642,17.3297297 L71.1,16.1189189 C70.8764151,15.9675676 70.6528302,15.9675676 70.5037736,16.1189189 L68.4915094,17.3297297 C68.3424528,17.4054054 68.1933962,17.6324324 68.1933962,17.8594595 L68.1933962,20.1297297 C68.1933962,20.3567568 68.3424528,20.5837838 68.4915094,20.6594595 L75.4971698,24.8216216 C75.6462264,24.8972973 75.6462264,25.2 75.4971698,25.2756757 L71.1,27.772973 C70.8764151,27.8486486 70.6528302,27.8486486 70.5037736,27.772973 L63.4235849,23.7621622 C63.2,23.6108108 62.9764151,23.3081081 62.9764151,23.0810811 L62.9764151,14.9837838 C62.9764151,14.6810811 63.1254717,14.3783784 63.4235849,14.3027027 Z" id="Shape" fill="#353128"></path>
                    </g>
                </g>
            </g>
        </g>
    </g>
</svg>

<svg width="100" height="28" xmlns="http://www.w3.org/2000/svg"><g fill-rule="nonzero" fill="none"><g fill="#353128"><path d="M95.636 17.74c-.072-.532-.509-.836-.727-1.064-.29-.152-.654-.228-1.09-.228-.946 0-1.819.304-1.819.836 0 .38.218.608.945.684l1.891.152c.8.076 1.237.304 1.673.532.582.304.873.988.873 1.672 0 .836-.364 1.444-1.018 1.824-.582.304-1.31.456-2.4.456-1.31 0-2.255-.304-2.837-.836-.436-.456-.582-.912-.654-1.824h1.236c.073.456.146.684.436.912.364.304 1.237.456 1.891.456 1.019 0 1.819-.304 1.819-.912 0-.456-.51-.684-1.237-.76l-1.818-.228c-1.382-.152-2.182-.836-2.182-1.976 0-1.444 1.237-2.356 3.2-2.356 1.018 0 1.891.228 2.473.684.727.532.727 1.368.727 1.9h-1.382v.076z"/><path d="M98.91 13.56l-6.4-3.876c-.437-.228-.946-.304-1.383 0l-6.4 3.876c-.436.228-.727.76-.727 1.292v7.752c0 .532.29.988.727 1.292l6.4 3.876c.437.228.946.304 1.382 0l6.4-3.876c.436-.228.727-.76.727-1.292v-7.752c0-.532-.29-.988-.727-1.292zm-.51 9.196l-6.618 3.952-3.055-1.9c.51-.304.8-.912.873-1.52v-8.132h-1.31v7.676c0 .608-.435 1.064-1.017 1.064-.146 0-.291 0-.364-.076h-.073l-1.672-.988v-7.98l6.618-3.952 6.618 4.028v7.828z"/></g><path d="M20.942 22.627v-7.568c0-.53.299-.983.746-1.21l6.484-3.784a1.557 1.557 0 0 1 1.416 0l6.41 3.784c.446.227.67.756.67 1.286v7.568c0 .53-.298.983-.745 1.21l-6.484 3.784a1.557 1.557 0 0 1-1.416 0l-6.41-3.783c-.372-.303-.67-.757-.67-1.287zM69.311 19.676v-1.438c0-.076.075-.227.15-.227l1.266-.757a.224.224 0 0 1 .298 0l1.267.757c.075.075.15.151.15.227v1.438c0 .075-.075.227-.15.227l-1.267.756a.224.224 0 0 1-.298 0l-1.267-.756c-.074-.076-.149-.152-.149-.227z" fill="#8CC644"/><path d="M57.089 2.346l-4.1-2.27c-.223-.152-.521.075-.521.302v10.67c0 .152-.224.303-.373.303l-.223-.075-1.267-.757a1.557 1.557 0 0 0-1.416 0l-6.335 3.708c-.447.227-.671.681-.671 1.21v7.417c0 .53.298.984.67 1.21l6.261 3.709c.447.227.969.227 1.416 0l6.335-3.708c.447-.227.67-.681.67-1.21V3.177c.075-.378-.148-.68-.446-.832zm-4.621 18.238l-2.609 1.513-2.534-1.513v-3.027l2.609-1.514 2.534 1.514v3.027zM0 25.654V14.908c0-.227.15-.454.373-.605l7.229-4.087a1.02 1.02 0 0 1 .67 0l7.08 4.087c.224.151.373.378.373.605v10.746c0 .227-.223.378-.447.303l-4.397-2.498c-.223-.075-.298-.302-.298-.53v-4.918c0-.227-.149-.454-.298-.606l-2.087-1.21c-.149-.076-.373-.076-.596 0l-2.012 1.21c-.224.152-.298.379-.298.606v4.843c0 .227-.15.454-.299.53L.522 25.805c-.298.227-.522.076-.522-.15zM63.424 14.303l7.005-4.011c.224-.151.522-.151.82 0l7.08 4.01a.797.797 0 0 1 .373.682v1.967c0 .303-.15.606-.447.681l-4.472 2.498c-.224.075-.373-.076-.373-.227v-2.044c0-.227-.074-.378-.298-.53L71.1 16.12c-.224-.151-.447-.151-.596 0l-2.012 1.21c-.15.076-.299.303-.299.53v2.27c0 .228.15.455.299.53l7.005 4.163c.15.075.15.378 0 .454L71.1 27.773c-.224.076-.447.076-.596 0l-7.08-4.01c-.224-.152-.448-.455-.448-.682v-8.097c0-.303.15-.606.448-.681z" fill="#353128"/></g></svg>
